assets/awsapprunner/original.svg

<svg height="64" viewBox="0 0 64 64" width="64" xmlns="http://www.w3.org/2000/svg"><g fill="none" fill-rule="evenodd"><path d="m0 0h64v64h-64z" fill="#ed7100"/><path d="m12.707 32.707-1.414-1.414-9.293 9.293v-4.586h-2v7a1 1 0 0 0 1 1h7v-2h-4.586zm30.293-32.707h-7v2h4.586l-8.793 8.793 1.414 1.414 8.793-8.793v4.586h2v-7a1 1 0 0 0 -1-1m-18 37h12v-12h-12zm14-13v14a1 1 0 0 1 -1 1h-14a1 1 0 0 1 -1-1v-14a1 1 0 0 1 1-1h14a1 1 0 0 1 1 1m-32-5h12v-12h-12zm14-13v14a1 1 0 0 1 -1 1h-14a1 1 0 0 1 -1-1v-14a1 1 0 0 1 1-1h14a1 1 0 0 1 1 1m-1 17h-14a1 1 0 0 0 -1 1v10.758l2-2v-7.758h12v12h-7.758l-2 2h10.758a1 1 0 0 0 1-1v-14a1 1 0 0 0 -1-1m17-11.758 2-2v10.758a1 1 0 0 1 -1 1h-14a1 1 0 0 1 -1-1v-14a1 1 0 0 1 1-1h10.758l-2 2h-7.758v12h12z" fill="#fff" transform="translate(10 10)"/></g></svg>

<svg xmlns="http://www.w3.org/2000/svg" width="64" height="64" viewBox="0 0 64 64"><title>Icon-Architecture/48/Arch_AWS-App-Runner_48</title><g id="Icon-Architecture/48/Arch_AWS-App-Runner_48" fill="none" fill-rule="evenodd" stroke="none" stroke-width="1"><g id="Icon-Architecture-BG/48/Compute" fill="#ed7100"><path id="Rectangle" d="M0 0h64v64H0z"/></g><g id="Icon-Service/48/AWS-Fusion_48" fill="#fff" transform="translate(10 10)"><path id="Fill-4" d="m12.707 32.707-1.414-1.414L2 40.586V36H0v7a1 1 0 0 0 1 1h7v-2H3.414zM43 0h-7v2h4.586l-8.793 8.793 1.414 1.414L42 3.414V8h2V1a1 1 0 0 0-1-1M25 37h12V25H25zm14-13v14a1 1 0 0 1-1 1H24a1 1 0 0 1-1-1V24a1 1 0 0 1 1-1h14a1 1 0 0 1 1 1M7 19h12V7H7zM21 6v14a1 1 0 0 1-1 1H6a1 1 0 0 1-1-1V6a1 1 0 0 1 1-1h14a1 1 0 0 1 1 1m-1 17H6a1 1 0 0 0-1 1v10.758l2-2V25h12v12h-7.758l-2 2H20a1 1 0 0 0 1-1V24a1 1 0 0 0-1-1m17-11.758 2-2V20a1 1 0 0 1-1 1H24a1 1 0 0 1-1-1V6a1 1 0 0 1 1-1h10.758l-2 2H25v12h12z"/></g></g></svg>
